svg/outdent.svg

<svg xmlns="http://www.w3.org/2000/svg" viewBox="0 0 64 48" enable-background="new 0 0 64 48"><style type="text/css">.st0{fill:#333333;}</style><title>outdent</title><desc>Created with Sketch.</desc><path class="st0" d="M3 6h58c1.7 0 3-1.3 3-3s-1.3-3-3-3h-58c-1.7 0-3 1.3-3 3s1.3 3 3 3zM61 28h-34c-1.7 0-3 1.3-3 3s1.3 3 3 3h34c1.7 0 3-1.3 3-3s-1.3-3-3-3zM61 14h-34c-1.7 0-3 1.3-3 3s1.3 3 3 3h34c1.7 0 3-1.3 3-3s-1.3-3-3-3zM61 42h-58c-1.7 0-3 1.3-3 3s1.3 3 3 3h58c1.7 0 3-1.3 3-3s-1.3-3-3-3zM14.6 10.2l-13.8 13c-.4.4-.4 1 0 1.4l13.8 13c.8.8 1.5.5 1.5-.6v-26.2c-.1-1.1-.7-1.4-1.5-.6z"/></svg>

<svg xmlns="http://www.w3.org/2000/svg" viewBox="0 0 64 48"><path d="M3 6h58c1.7 0 3-1.3 3-3s-1.3-3-3-3H3C1.3 0 0 1.3 0 3s1.3 3 3 3zm58 22H27c-1.7 0-3 1.3-3 3s1.3 3 3 3h34c1.7 0 3-1.3 3-3s-1.3-3-3-3zm0-14H27c-1.7 0-3 1.3-3 3s1.3 3 3 3h34c1.7 0 3-1.3 3-3s-1.3-3-3-3zm0 28H3c-1.7 0-3 1.3-3 3s1.3 3 3 3h58c1.7 0 3-1.3 3-3s-1.3-3-3-3zM14.6 10.2L.8 23.2c-.4.4-.4 1 0 1.4l13.8 13c.8.8 1.5.5 1.5-.6V10.8c-.1-1.1-.7-1.4-1.5-.6z" fill="#333"/></svg>
